X: 817
P: Longways for as many as will
M: 3/2
L: 1/8
K: Dm
|:\
d4 f4 A4 | d3f e2d2 ^c2e2 | A3B A2G2 F2d2 | E2c2 c2G2 GAB2 |\
[|
f4 a4 c4 | f3a g2f2 e2g2 | c3d c2B2 A2f2 | G2f2 g2e2 f2g2 |\
a2ga b2g2 a2f2 | g2ef g2e2 f2d2 | e2=Bc d2B2 ^c2A2 | d2ef e2^c2 d4 |]

